!!!OTL:  Lass rauschen!
!!!ARE: Europa, Mitteleuropa, Deutschland
!!!SCT: A0179
!!!YEM: Copyright 1995, estate of Helmut Schaffrath.
**kern
*ICvox
*Ivox
!! Mixed meters:  4/2; 3/2
*M3/2
*k[f#]
*G:
{2g
=1
1g
1dd
=2
1ee
1dd
=3
1.cc
4cc
4b
=4
1a
2r}
=5
{2a
=6
*M4/2
1cc
1cc
=7
1cc
1b
=8
2.a
4b
2.cc
8b
8cc
=9
*M3/2
1dd
2r}
=10
{2dd
=11
*M4/2
1g
2a
2a
=12
1b
2cc
2cc
=13
2.a
4g
2.f#
4e
=14
*M3/2
1d
2r}
=15
{2d
=16
*M4/2
2.a
4b
2.cc
8b
8cc
=17
*M3/2
1dd
2r}
=18
{2ee
=19
*M4/2
2dd
2dd
1b
=20
1cc
1a
=21
*M3/2
1g
2r}
=22
{2g
=23
*M4/2
1g
1dd
=24
1ffn
1ee
=25
1dd
2cc
2b
=26
*M3/2
1a}
{2a
=27
2cc
2cc
2dd
=28
*M4/2
1cc
1b
=29
2a
2b
2cc
4b
4cc
=30
*M3/2
2dd
2r}
{2dd
=31
*M4/2
1g
1a
=32
1b
1cc
=33
1.a
2g
=34
*M3/2
2fn
2e
2d}
=35
{2d
=36
*M4/2
2a
2b
2cc
4b
4cc
=37
1dd
1ee
=38
1dd
2cc
2b
=39
1cc
1a
=40
1b}
{1ee
=41
1dd
2cc
2b
=42
1cc
1a
=43
1g
2r}
==
!!!AGN: Romanze, Ballade, Lied
!! Schmeltzels Quodlibet 1544 No. 15.
!!!ONB: ESAC (Essen Associative Code) Database: ALTDEU
!!!AMT: irregular
!!!AIN: vox
!!!EED: Helmut Schaffrath
!!!EEV: 1.0
*-
